X: 6
T: No_101_Song_During_Which_Next_to_Leading_Warrior_Dances.krn
N: Derived from No_101_Song_During_Which_Next_to_Leading_Warrior_Dances.krn
%%abc-version 2.0
%%abcx-abcm2ps-target-version 5.9.1 (29 Sep 2008)
%%abc-creator hum2abc beta
%%abcx-conversion-date 2019/03/15 08:35:44
%%humdrum-veritas 865529911
%%humdrum-veritas-data 3319646168
%%linebreak <none>
%%barnumbers 0
L: 1/8
M: 2/4
K: A clef=bass
[K:clef=bass][M:2/4]z2z C ]|:  
C2C3/B,/ | 
B,2A,B, | 
A,3/A,/ A,A, ||  
[M:3/4]A,4E, z/ C/ ||  
[M:2/4]C2C3/B,/ | 
B,2A,B, | 
A,3/A,/ A,A, ||  
[M:3/4]A,4z2 | 
A,/A,A,/A,2A, z ||  
[M:2/4]B,B, A,3/E,/ | 
E,2D,E, ||  
[M:5/8]D,2B,,A,,B,, | 
A,,2F,,E,,F,, ||  
[M:2/4]E,,3/E,,/ E,,E,, | 
E,,4 | 
E,,2z C :|]  
E,,2z2 |]  



